_inc/systems/logos/neogeocd.svg

<svg xmlns="http://www.w3.org/2000/svg" viewBox="0 0 3839 1376.3"><path d="m1652.4 328.2 15.9-36.9-33.2-42-31.3 1.4-19.3 39.8 27.6 44.3zM1482 361.5l-20.2 16.4 1.7 23.2 21.7 13.4 33.5-24.2-12.2-26.4z" class="st0" style="fill:#fff"/><path d="m1529.2 0-193.3 193.3v340.5l240.8 240.8h340.5l193.3-193.3zm373.9 740.6h-312.3l-220.9-220.9V207.4l159.3-159.2 533.1 533.1z" class="st0" style="fill:#fff"/><path d="m1794.2 542.5-24.5 51-45.1 32.6-63.7 6.6-63.8-16.9 76.6 48.8 59-.4 39.9-20.2 43.6-55.3 11-45.4-16.8-82.8zM2262.3 6h-340.5l-193.3 193.3 581.3 581.3 193.3-193.3V246.8zm-238.8 327.4-49-41.8 5.5-66.3 56.4-12.4 39.5 39.5 3.7 59.4zm137.3-140.9-40-6.2-11.7-31.5 19.8-32.2 41.7 5.1 14 31.5zM2370 465.8l-44 15.4-12.5 62.3-77.6 9.5-38.5-30.7-11-66.4 61.2-26.3 9.3-28.8-6.4-72.3 102.6-18.4 22.3 118zm1317.4 500.9c-18.8-32-57.1-52.7-97.4-52.7h-64.3v381.8c0 20.4 16.6 36.9 37 36.9h33.4c41.3 0 81.1-26 98.8-64.6 25.8-56.2 27.8-125.4 27.8-145.2-.1-10-1-98-35.3-156.2m-5.2 295.5c-15.5 33.8-50.2 56.5-86.2 56.5h-33.4a23 23 0 0 1-23-23V927.8h50.4c35.5 0 69.1 18 85.4 45.9 32.3 55.1 33.3 139.6 33.3 149 0 19.2-1.9 85.8-26.5 139.5" class="st0" style="fill:#fff"/><path d="M3606.1 885.1h-255v34.3h9.1c44.5 0 53.6 16.7 53.6 37.4v340.5c0 20.6-9.2 37.4-53.6 37.4h-9.8v34.3h255.9c118.8 0 232.9-83 232.9-241.9-.2-168-127.5-242-233.1-242m0 469.9h-241.8v-6.5c42.1-1 63.5-18.3 63.5-51.2V956.7c0-32.8-21.1-50-62.7-51.2V899h241.1c53.8 0 107.3 19.9 146.8 54.6 47.2 41.4 72.1 101.4 72.1 173.5 0 156.5-113.5 227.9-219 227.9m-430.9-423c74 0 118.9 67.6 129.2 117h29.4V874.1h-25s-8.8 33.5-28.1 33.5c-25.1 0-56.7-26.6-136.8-26.6-114.8 0-217.1 112.1-217.1 247.9 0 172.4 115.2 247.4 231.5 247.4 64.5 0 134.3-37 175.4-97.6v-76.1c-30.1 58.5-90 120.7-155.2 120.7-44 0-88.8-20.8-109.4-77.4-10.6-29.1-14.2-67.9-14.2-119.2.1-72.3 19.2-194.7 120.3-194.7m-134.1 194.7c0 57.2 4.6 95.4 15 123.9 20 55 64.7 86.6 122.5 86.6 54.5 0 105.7-39 141.3-86.4v23.5c-38.1 53.6-101 88-161.5 88-100.4 0-217.6-61.1-217.6-233.5 0-61.7 22-120.6 62-165.6 38.5-43.4 90-68.4 141.2-68.4 49 0 78.9 10.4 100.8 18 13.8 4.8 24.7 8.6 36 8.6 20.9 0 32.6-20.4 38-33.5h1.2v147h-4.6c-16.8-58.6-69.2-117-140.1-117-124.5.2-134.2 159.9-134.2 208.8M472.3 886H329.1v18.8h18.7c25 0 45.3 23.3 45.3 48.3v232.3L149 886H0v18.8c33.3 0 59.5 30 59.5 63.4v325.5c0 33.3-35.1 44.3-59.5 44.3v18.8h161.8V1338c-30.3-.2-46.3-4.3-56.7-14.1-10.3-9.8-13.1-22.8-13.1-40.7v-305l316 385.3h17.3v-410c0-24.3 19-44.9 47-45.9z" class="st0" style="fill:#fff"/><circle cx="1455.8" cy="1120" r="54.6" class="st0" style="fill:#fff"/><path d="M1771.6 1136.6v22.7h17.8c28.9 0 37 13.9 37 38.8v111.3c-6.6 8-29.1 18.2-61 18.2-6.5 0-43.3-.7-70.8-23.3-28.8-23.6-48.2-71.5-48.2-185.3 0-148.2 52.1-210.9 127.7-210.9 24.6 0 107.9 16.6 143.4 123.7h22.2V877.3h-21c-2.7 20.8-19.1 32.3-50.1 19.4-46.8-19.5-88.7-22.4-119.4-22.4-120.9 0-223.8 111.9-223.8 245.6 0 154 116.3 244.2 241.1 244.2 59.2 0 121.9-13.7 171.6-38.8v-127.2c0-29.8 20.8-38.8 48.8-38.8v-22.7zM870 1211.5c-11.7 64.5-67.3 114.9-129.7 113.3h-53.8a30.6 30.6 0 0 1-30.6-30.6v-165h14.8c44 0 72.1 36.9 72.1 100.3H762v-228.4h-19.3c0 55.8-23.6 96.1-72.2 96.1h-14.8V914.3h77.4c104.2 0 107.8 92.9 107.8 104.9h20.8V886H486.1v18.7h26.5c20.3 0 36.7 19.2 36.7 39.4v346.6c0 36.5-23.9 44.8-44.2 44.8h-19v21.4h381l21.4-145.4zm276.4-330.4c-135.5 0-239.8 99.8-239.8 243.2s104.4 243.2 239.8 243.2c135.5 0 239.9-99.8 239.9-243.2s-104.4-243.2-239.9-243.2m0 455c-65.1 0-117.8-59.6-117.8-211.8s52.8-211.8 117.8-211.8c65.1 0 117.8 59.6 117.8 211.8.1 152.2-52.7 211.8-117.8 211.8m1226.9-124.6c-11.7 64.5-67.3 114.9-129.7 113.3h-53.8a30.6 30.6 0 0 1-30.6-30.6v-165h14.8c44 0 72.1 36.9 72.1 100.3h19.3v-228.4H2246c0 55.8-23.6 96.1-72.2 96.1H2159V914.3h77.4c104.2 0 107.8 92.9 107.8 104.9h20.8V886h-375.6v18.7h26.5c20.3 0 36.7 19.2 36.7 39.4v346.6c0 36.5-23.9 44.8-44.2 44.8h-19v21.4h381l21.4-145.4zm276.3-330.4c-135.5 0-239.8 99.8-239.8 243.2s104.4 243.2 239.8 243.2c135.5 0 239.9-99.8 239.9-243.2s-104.4-243.2-239.9-243.2m0 455c-65.1 0-117.8-59.6-117.8-211.8s52.8-211.8 117.8-211.8c65.1 0 117.8 59.6 117.8 211.8.2 152.2-52.7 211.8-117.8 211.8" class="st0" style="fill:#fff"/></svg>

<?xml version="1.0" encoding="utf-8"?>
<svg version="1.1" viewBox="0 0 3839 1376.3" xmlns="http://www.w3.org/2000/svg">
  <polygon class="st0" points="1652.4 328.2 1668.3 291.3 1635.1 249.3 1603.8 250.7 1584.5 290.5 1612.1 334.8" style="fill: rgb(255, 255, 255);"/>
  <polygon class="st0" points="1482 361.5 1461.8 377.9 1463.5 401.1 1485.2 414.5 1518.7 390.3 1506.5 363.9" style="fill: rgb(255, 255, 255);"/>
  <path class="st0" d="M 1529.2 0 L 1335.9 193.3 L 1335.9 533.8 L 1576.7 774.6 L 1917.2 774.6 L 2110.5 581.3 L 1529.2 0 Z M 1903.1 740.6 L 1590.8 740.6 L 1369.9 519.7 L 1369.9 207.4 L 1529.2 48.2 L 2062.3 581.3 L 1903.1 740.6 Z" style="fill: rgb(255, 255, 255);"/>
  <polygon class="st0" points="1794.2 542.5 1769.7 593.5 1724.6 626.1 1660.9 632.7 1597.1 615.8 1673.7 664.6 1732.7 664.2 1772.6 644 1816.2 588.7 1827.2 543.3 1810.4 460.5" style="fill: rgb(255, 255, 255);"/>
  <path class="st0" d="M 2262.3 6 L 1921.8 6 L 1728.5 199.3 L 2309.8 780.6 L 2503.1 587.3 L 2503.1 246.8 L 2262.3 6 Z M 2023.5 333.4 L 1974.5 291.6 L 1980 225.3 L 2036.4 212.9 L 2075.9 252.4 L 2079.6 311.8 L 2023.5 333.4 Z M 2160.8 192.5 L 2120.8 186.3 L 2109.1 154.8 L 2128.9 122.6 L 2170.6 127.7 L 2184.6 159.2 L 2160.8 192.5 Z M 2370 465.8 L 2326 481.2 L 2313.5 543.5 L 2235.9 553 L 2197.4 522.3 L 2186.4 455.9 L 2247.6 429.6 L 2256.9 400.8 L 2250.5 328.5 L 2353.1 310.1 L 2375.4 428.1 L 2370 465.8 Z" style="fill: rgb(255, 255, 255);"/>
  <path class="st0" d="M 3687.4 966.7 C 3668.6 934.7 3630.3 914 3590 914 L 3525.7 914 L 3525.7 1295.8 C 3525.7 1316.2 3542.3 1332.7 3562.7 1332.7 L 3596.1 1332.7 C 3637.4 1332.7 3677.2 1306.7 3694.9 1268.1 C 3720.7 1211.9 3722.7 1142.7 3722.7 1122.9 C 3722.6 1112.9 3721.7 1024.9 3687.4 966.7 Z M 3682.2 1262.2 C 3666.7 1296 3632 1318.7 3596 1318.7 L 3562.6 1318.7 C 3549.9 1318.7 3539.6 1308.4 3539.6 1295.7 L 3539.6 927.8 L 3590 927.8 C 3625.5 927.8 3659.1 945.8 3675.4 973.7 C 3707.7 1028.8 3708.7 1113.3 3708.7 1122.7 C 3708.7 1141.9 3706.8 1208.5 3682.2 1262.2 Z" style="fill: rgb(255, 255, 255);"/>
  <path class="st0" d="M 3606.1 885.1 L 3351.1 885.1 L 3351.1 919.4 L 3360.2 919.4 C 3404.7 919.4 3413.8 936.1 3413.8 956.8 L 3413.8 1297.3 C 3413.8 1317.9 3404.6 1334.7 3360.2 1334.7 L 3350.4 1334.7 L 3350.4 1369 L 3425.3 1369 L 3526.9 1369 L 3606.3 1369 C 3725.1 1369 3839.2 1286 3839.2 1127.1 C 3839 959.1 3711.7 885.1 3606.1 885.1 Z M 3606.1 1355 L 3364.3 1355 L 3364.3 1348.5 C 3406.4 1347.5 3427.8 1330.2 3427.8 1297.3 L 3427.8 956.7 C 3427.8 923.9 3406.7 906.7 3365.1 905.5 L 3365.1 899 L 3606.2 899 C 3660 899 3713.5 918.9 3753 953.6 C 3800.2 995 3825.1 1055 3825.1 1127.1 C 3825.1 1283.6 3711.6 1355 3606.1 1355 Z" style="fill: rgb(255, 255, 255);"/>
  <path class="st0" d="M 3175.2 932 C 3249.2 932 3294.1 999.6 3304.4 1049 L 3333.8 1049 L 3333.8 874.1 L 3308.8 874.1 C 3308.8 874.1 3300 907.6 3280.7 907.6 C 3255.6 907.6 3224 881 3143.9 881 C 3029.1 881 2926.8 993.1 2926.8 1128.9 C 2926.8 1301.3 3042 1376.3 3158.3 1376.3 C 3222.8 1376.3 3292.6 1339.3 3333.7 1278.7 L 3333.7 1202.6 C 3303.6 1261.1 3243.7 1323.3 3178.5 1323.3 C 3134.5 1323.3 3089.7 1302.5 3069.1 1245.9 C 3058.5 1216.8 3054.9 1178 3054.9 1126.7 C 3055 1054.4 3074.1 932 3175.2 932 Z M 3041.1 1126.7 C 3041.1 1183.9 3045.7 1222.1 3056.1 1250.6 C 3076.1 1305.6 3120.8 1337.2 3178.6 1337.2 C 3233.1 1337.2 3284.3 1298.2 3319.9 1250.8 L 3319.9 1274.3 C 3281.8 1327.9 3218.9 1362.3 3158.4 1362.3 C 3058 1362.3 2940.8 1301.2 2940.8 1128.8 C 2940.8 1067.1 2962.8 1008.2 3002.8 963.2 C 3041.3 919.8 3092.8 894.8 3144 894.8 C 3193 894.8 3222.9 905.2 3244.8 912.8 C 3258.6 917.6 3269.5 921.4 3280.8 921.4 C 3301.7 921.4 3313.4 901 3318.8 887.9 L 3320 887.9 L 3320 1034.9 L 3315.4 1034.9 C 3298.6 976.3 3246.2 917.9 3175.3 917.9 C 3050.8 918.1 3041.1 1077.8 3041.1 1126.7 Z" style="fill: rgb(255, 255, 255);"/>
  <path class="st0" d="M 472.3 886 L 329.1 886 L 329.1 904.8 L 347.8 904.8 C 372.8 904.8 393.1 928.1 393.1 953.1 L 393.1 1185.4 L 149 886 L 0 886 L 0 904.8 C 33.3 904.8 59.5 934.8 59.5 968.2 L 59.5 1293.7 C 59.5 1327 24.4 1338 0 1338 L 0 1356.8 L 161.8 1356.8 L 161.8 1338 C 131.5 1337.8 115.5 1333.7 105.1 1323.9 C 94.8 1314.1 92 1301.1 92 1283.2 L 92 978.2 L 408 1363.5 L 425.3 1363.5 L 425.3 953.5 C 425.3 929.2 444.3 908.6 472.3 907.6 L 472.3 886 Z" style="fill: rgb(255, 255, 255);"/>
  <circle class="st0" cx="1455.8" cy="1120" r="54.6" style="fill: rgb(255, 255, 255);"/>
  <path class="st0" d="M 1771.6 1136.6 L 1771.6 1159.3 L 1789.4 1159.3 C 1818.3 1159.3 1826.4 1173.2 1826.4 1198.1 L 1826.4 1309.4 C 1819.8 1317.4 1797.3 1327.6 1765.4 1327.6 C 1758.9 1327.6 1722.1 1326.9 1694.6 1304.3 C 1665.8 1280.7 1646.4 1232.8 1646.4 1119 C 1646.4 970.8 1698.5 908.1 1774.1 908.1 C 1798.7 908.1 1882 924.7 1917.5 1031.8 L 1939.7 1031.8 L 1939.7 877.3 L 1918.7 877.3 C 1916 898.1 1899.6 909.6 1868.6 896.7 C 1821.8 877.2 1779.9 874.3 1749.2 874.3 C 1628.3 874.3 1525.4 986.2 1525.4 1119.9 C 1525.4 1273.9 1641.7 1364.1 1766.5 1364.1 C 1825.7 1364.1 1888.4 1350.4 1938.1 1325.3 L 1938.1 1198.1 C 1938.1 1168.3 1958.9 1159.3 1986.9 1159.3 L 1986.9 1136.6 L 1771.6 1136.6 L 1771.6 1136.6 Z" style="fill: rgb(255, 255, 255);"/>
  <path class="st0" d="M 870 1211.5 C 858.3 1276 802.7 1326.4 740.3 1324.8 L 686.5 1324.8 C 669.6 1324.8 655.9 1311.1 655.9 1294.2 L 655.9 1129.2 L 670.7 1129.2 C 714.7 1129.2 742.8 1166.1 742.8 1229.5 L 762 1229.5 L 762 1117.1 L 762 1111.4 L 762 1001.1 L 742.7 1001.1 C 742.7 1056.9 719.1 1097.2 670.5 1097.2 L 655.7 1097.2 L 655.7 914.3 L 733.1 914.3 C 837.3 914.3 840.9 1007.2 840.9 1019.2 L 861.7 1019.2 L 861.7 918.3 L 861.7 886 L 486.1 886 L 486.1 904.7 L 512.6 904.7 C 532.9 904.7 549.3 923.9 549.3 944.1 L 549.3 1290.7 C 549.3 1327.2 525.4 1335.5 505.1 1335.5 L 486.1 1335.5 L 486.1 1356.9 L 549.3 1356.9 L 867.1 1356.9 L 888.5 1211.5 L 870 1211.5 Z" style="fill: rgb(255, 255, 255);"/>
  <path class="st0" d="M 1146.4 881.1 C 1010.9 881.1 906.6 980.9 906.6 1124.3 C 906.6 1267.7 1011 1367.5 1146.4 1367.5 C 1281.9 1367.5 1386.3 1267.7 1386.3 1124.3 C 1386.3 980.9 1281.9 881.1 1146.4 881.1 Z M 1146.4 1336.1 C 1081.3 1336.1 1028.6 1276.5 1028.6 1124.3 C 1028.6 972.1 1081.4 912.5 1146.4 912.5 C 1211.5 912.5 1264.2 972.1 1264.2 1124.3 C 1264.3 1276.5 1211.5 1336.1 1146.4 1336.1 Z" style="fill: rgb(255, 255, 255);"/>
  <path class="st0" d="M 2373.3 1211.5 C 2361.6 1276 2306 1326.4 2243.6 1324.8 L 2189.8 1324.8 C 2172.9 1324.8 2159.2 1311.1 2159.2 1294.2 L 2159.2 1129.2 L 2174 1129.2 C 2218 1129.2 2246.1 1166.1 2246.1 1229.5 L 2265.4 1229.5 L 2265.4 1117.1 L 2265.4 1111.4 L 2265.4 1001.1 L 2246 1001.1 C 2246 1056.9 2222.4 1097.2 2173.8 1097.2 L 2159 1097.2 L 2159 914.3 L 2236.4 914.3 C 2340.6 914.3 2344.2 1007.2 2344.2 1019.2 L 2365 1019.2 L 2365 918.3 L 2365 886 L 1989.4 886 L 1989.4 904.7 L 2015.9 904.7 C 2036.2 904.7 2052.6 923.9 2052.6 944.1 L 2052.6 1290.7 C 2052.6 1327.2 2028.7 1335.5 2008.4 1335.5 L 1989.4 1335.5 L 1989.4 1356.9 L 2052.6 1356.9 L 2370.4 1356.9 L 2391.8 1211.5 L 2373.3 1211.5 Z" style="fill: rgb(255, 255, 255);"/>
  <path class="st0" d="M 2649.6 881.1 C 2514.1 881.1 2409.8 980.9 2409.8 1124.3 C 2409.8 1267.7 2514.2 1367.5 2649.6 1367.5 C 2785.1 1367.5 2889.5 1267.7 2889.5 1124.3 C 2889.5 980.9 2785.1 881.1 2649.6 881.1 Z M 2649.6 1336.1 C 2584.5 1336.1 2531.8 1276.5 2531.8 1124.3 C 2531.8 972.1 2584.6 912.5 2649.6 912.5 C 2714.7 912.5 2767.4 972.1 2767.4 1124.3 C 2767.6 1276.5 2714.7 1336.1 2649.6 1336.1 Z" style="fill: rgb(255, 255, 255);"/>
</svg>
